src/status/symbolic/battery-level-70-charging-symbolic.svg

<?xml version="1.0" encoding="UTF-8"?>
<svg width="16" height="16" version="1.1" xmlns="http://www.w3.org/2000/svg">
 <g id="g10" fill="#363636">
  <path id="path4" d="m2 3c-1.108 0-2 0.892-2 2v6c0 1.108 0.892 2 2 2h9c1.108 0 2-0.892 2-2v-6c0-1.108-0.892-2-2-2h-9zm0 1h9c0.554 0 1 0.446 1 1v6c0 0.554-0.446 1-1 1h-9c-0.554 0-1-0.446-1-1v-6c0-0.554 0.446-1 1-1z"/>
  <path id="rect6" class="success" d="m2.5 5c-0.277 0-0.5 0.223-0.5 0.5v5c0 0.277 0.223 0.5 0.5 0.5h2.4688l0.25-1h-1.7188a1.0001 1.0001 0 0 1-0.83203-1.5547l2.2969-3.4453h-2.4648zm5.457 0.29883-0.17578 0.70117h0.21875v-0.5c0-0.0718-0.015946-0.13957-0.042969-0.20117zm-2.2891 2.2539-0.29883 0.44727h1.1152a1.0001 1.0001 0 0 1-0.81641-0.44727zm0.84766 0.44727a1.0001 1.0001 0 0 1 0.81641 0.44727l0.29883-0.44727h-1.1152z" fill="#aac69f"/>
  <path id="path8" d="m14 6v4a2 2 0 0 0 2-2 2 2 0 0 0-2-2z"/>
 </g>
 <path id="path6" d="m6.834 4-3.334 5h3l-0.75 3h0.41602l3.334-5h-3l0.75-3z" fill="#363636"/>
</svg>

<svg xmlns="http://www.w3.org/2000/svg" width="16" height="16">
    <g fill="#050505" opacity=".7">
        <path d="M2 3C.892 3 0 3.892 0 5v6c0 1.108.892 2 2 2h9c1.108 0 2-.892 2-2V5c0-1.108-.892-2-2-2H2zm0 1h9c.554 0 1 .446 1 1v6c0 .554-.446 1-1 1H2c-.554 0-1-.446-1-1V5c0-.554.446-1 1-1z"/>
        <path fill="#add49f" d="M2.5 5c-.277 0-.5.223-.5.5v5c0 .277.223.5.5.5h2.469l.25-1H3.5a1 1 0 0 1-.832-1.555L4.965 5H2.5zm5.457.299L7.781 6H8v-.5a.5.5 0 0 0-.043-.201zm-2.29 2.254L5.37 8h1.115a1 1 0 0 1-.816-.447zM6.517 8a1 1 0 0 1 .816.447L7.631 8H6.516z" class="success"/>
        <path d="M14 6v4a2 2 0 0 0 2-2 2 2 0 0 0-2-2z"/>
    </g>
    <path fill="#050505" fill-opacity=".7" d="M6.834 4 3.5 9h3l-.75 3h.416L9.5 7h-3l.75-3z"/>
</svg>
